!!!COM:	Bach, Johann Sebastian
!!!OMV:	Warum sollt ich mich denn gr&auml;men
!!!OTL:	Warum sollt ich mich denn gr&auml;men
**kern	**fb	**kern	**kern	**kern	**kern
*part5	*part5	*part4	*part3	*part2	*part1
*staff5	*	*staff4	*staff3	*staff2	*staff1
*I"Continuo	*	*I"Voice	*I"Voice	*I"Voice	*I"Voice
*I'Cont.	*	*I'V	*I'V	*I'V	*I'V
*clefF4	*	*clefF4	*clefGv2	*clefG2	*clefG2
*Trd0c0	*	*	*	*	*
*k[f#]	*	*k[f#]	*k[f#]	*k[f#]	*k[f#]
*M4/4	*	*M4/4	*M4/4	*M4/4	*M4/4
=	=	=	=	=	=
4G	.	4G	4B	4d	4g
2C	5 3	4C	4c	4e	4g
.	6 4 2	4c	4F#	4d	4a
4BB	6	4B	4G	4d	4g
=3	=3	=3	=3	=3	=3
4AA	5	4A	4c	4e	8aL
.	.	.	.	.	8bJ
4AA-X	nr6	4A-X	8cL	4fn	4cc
.	.	.	8dJ	.	.
2GG	6 4	2G	4e	2g	4cc
.	5 3	.	4d	.	4b
=4	=4	=4	=4	=4	=4
2C;	.	2C;	2e;	2g;	2cc;
4G	8	4G	8gL	8bL	4dd
.	nr7	.	8fnJ	8aJ	.
4G#X	6	4G#X	4e	4b	4ee
=5	=5	=5	=5	=5	=5
2A;	.	2A;	2e;	2a;	2cc;
4E	.	4E	4e	4gn	8bL
.	.	.	.	.	8ccJ
8BBL	6	8BBL	4d	4g	4dd
8CJ	.	8CJ	.	.	.
=6	=6	=6	=6	=6	=6
2D;	.	2D;	2d;	2f#;	2a;
4D	.	4D	4A	4f#	4dd
8GL	.	8GL	4B	4g	4dd
8F#J	.	8F#J	.	.	.
=7	=7	=7	=7	=7	=7
4E	6	4E	4c	4g	4cc
4D	6 4	4D	4d	4g	8bL
.	.	.	.	.	8aJ
4C	6 5	4C	4e	4g	2a
4D	.	4D	8dL	4f#	.
.	.	.	8cJ	.	.
=8	=8	=8	=8	=8	=8
2GG;	.	2GG;	2B;	2d;	2g;
8CL	.	8CL	4c	4e	4g
8DJ	.	8DJ	.	.	.
4E	5	4E	4G	8BL	4g
.	#6\	.	.	8c#XJ	.
=9	=9	=9	=9	=9	=9
!!linebreak:original
8DL	.	8DL	4F#	8dL	4a
8EJ	.	8EJ	.	8cnJ	.
4Fn	6 4 2	4Fn	4G	4B	4g
8EL	6 4	8EL	8GL	8cL	8aL
8DJ	6	8DJ	8FnJ	8dJ	8bJ
8EL	6	8EL	8GL	8cL	4cc
8F#XJ	6 5	8F#XJ	8AJ	8dJ	.
=10	=10	=10	=10	=10	=10
4G	6 4	4G	4G	4e	4cc
4G#X	6 5	4G#X	4e	4d	4b
2A;	.	2A;	2e;	2c;	2cc;
=11	=11	=11	=11	=11	=11
4B	5	4B	8dL	4f#	4dd
.	.	.	8cJ	.	.
4E	#	4E	4B	4g#X	4ee
2A;	.	2A;	2A;	2e;	2cc;
=12	=12	=12	=12	=12	=12
4E	5 3	4E	8GL	4gn	8bL
.	6 4	.	8AJ	.	8ccJ
8DL	6	8DL	8BL	8f#L	4dd
8EJ	7 5	8EJ	8GJ	8gJ	.
2F#;	6	2F#;	2d;	2a;	2a;
=13	=13	=13	=13	=13	=13
8GL	.	8GL	8BL	4g	4dd
8AJ	.	8AJ	8cJ	.	.
4B	6	4B	4d	8gL	4dd
.	5	.	.	8f#J	.
8BL	6 4 2	8BL	8eL	8gL	4cc
8AJ	6	8AJ	8f#J	8aJ	.
8BL	6	8BL	4g	8dL	8bL
8cJ	6 5	8cJ	.	8eJ	8aJ
=14	=14	=14	=14	=14	=14
4d	.	4d	8d	8f#	2a
.	.	.	16cLL	4g	.
.	.	.	16BJJ	.	.
4D	.	4D	4c	.	.
.	.	.	.	8f#	.
2G;	.	2G;	2B;	2d;	2g;
=||	=||	=||	=||	=||	=||
*-	*-	*-	*-	*-	*-
!!!system-decoration: s1,s2,s3,s4,s5
